X: 2328
M: C
L: 1/8
K: D
|: (dB) |\
[1,3 fgfe fgfe | defd B2 :|\
[2,4 fgfe dfag | f2d2d2 ::\
(fg) |\
afdf a2(gf) |
gfga b2(ag) |\
fgag fgfe | defd B2(dB) |\
fgfe dfag | f2d2d2 :|


